X: 1
T: Let the Bottle Circulate
C: trad. Scotland
F: http://pipehacker.com/wp-content/uploads/2010/12/letbottlecirculate.png
N: Arr. Vincent Janoski
R: reel
Z: 2012 John Chambers <jc:trillian.mit.edu>
M: C|
L: 1/8
K: Hp
|:\
{gfg}f2ed {gef}e2{AGAG}A2 | {gfg}f2ed {g}B<{d}A{g}B<{d}B |\
{gfg}f2ed {gef}e2{AGAG}A2 | {g}dB{e}GB {g}A{d}A{e}A<{d}A :|
|:\
{g}c/B/A{g}A<{d}A {Gdc}d2{e}Ad | {g}B{d}A{g}Bc {Gdc}d2{e}AB |\
{g}A{d}A{e}AB {Gdc}d2{e}Ad | {g}ea{de}dA {g}B<{d}A{g}B<{d}B :|
